X:283
T:Orphan, The
R:jig
H:Also in Edor, #121
Z:id:hn-jig-283
M:6/8
K:Ador
ABA AGE|cBc d^cd|e=fe ded|cAc BGE|
ABA AGE|cBc d^cd|e=fe ded|cAF G3:|
|:aba ged|cAc dcd|e=fe ded|cAc BGE|
[1 aba ged|cAc dcd|e=fe ded|cAF G3:|
[2 ABA AGE|cBc d^cd|e=fe ded|cAF G3||

